X: 48
T: No_141_Screech_Owl_Dance_Song_(a).krn
N: Derived from No_141_Screech_Owl_Dance_Song_(a).krn
%%abc-version 2.0
%%abcx-abcm2ps-target-version 5.9.1 (29 Sep 2008)
%%abc-creator hum2abc beta
%%abcx-conversion-date 2019/03/15 08:38:45
%%humdrum-veritas 4058991177
%%humdrum-veritas-data 1614444066
%%linebreak <none>
%%barnumbers 0
L: 1/8
M: 2/4
K: D clef=bass
[K:clef=bass][M:2/4]A,3A, [I:setbarnb 2]||  
[M:3/4]A,4(G,3/D,/) | 
D,2D,4 ||  
[M:2/4]E,3E, ||  
[M:3/4]D,4B,,3/A,,/ | 
A,,2A,,2A,,C, ||  
[M:2/4]D,2A,,C, ||  
[M:3/4]D,2D,3/B,,/D,2 ||  
[M:2/4]D,4 :|]  



